src/images/dil.svg

<svg width="192" height="35" viewBox="0 0 192 35" fill="none" xmlns="http://www.w3.org/2000/svg">
<path d="M49.9 24V9.71998H53.84L57.6 21.22H57.66C57.6334 20.7533 57.6067 20.3066 57.58 19.88C57.5667 19.44 57.5534 19.0333 57.54 18.66C57.54 18.2733 57.5334 17.9333 57.52 17.64C57.52 17.3333 57.52 17.08 57.52 16.88V9.71998H60.1V24H56.12L52.36 12.4H52.28C52.3067 12.88 52.3334 13.3466 52.36 13.8C52.3867 14.24 52.4067 14.66 52.42 15.06C52.4467 15.4466 52.46 15.8 52.46 16.12C52.4734 16.4266 52.48 16.68 52.48 16.88V24H49.9Z" fill="black"/>
<path d="M66.9922 24.2C66.0589 24.2 65.2522 24.0333 64.5722 23.7C63.8922 23.3666 63.3322 22.8866 62.8922 22.26C62.4522 21.62 62.1255 20.8466 61.9122 19.94C61.6989 19.0333 61.5922 18 61.5922 16.84C61.5922 15.2933 61.7855 13.9733 62.1722 12.88C62.5589 11.7733 63.1455 10.9333 63.9322 10.36C64.7322 9.77331 65.7522 9.47998 66.9922 9.47998C67.9255 9.47998 68.7322 9.64665 69.4122 9.97998C70.0922 10.3133 70.6522 10.8 71.0922 11.44C71.5322 12.0666 71.8589 12.84 72.0722 13.76C72.2855 14.6666 72.3922 15.6933 72.3922 16.84C72.3922 18 72.2855 19.0333 72.0722 19.94C71.8589 20.8466 71.5322 21.62 71.0922 22.26C70.6522 22.8866 70.0922 23.3666 69.4122 23.7C68.7322 24.0333 67.9255 24.2 66.9922 24.2ZM66.9922 21.7C67.5655 21.7 68.0322 21.52 68.3922 21.16C68.7522 20.7866 69.0189 20.24 69.1922 19.52C69.3655 18.8 69.4522 17.9 69.4522 16.82C69.4522 15.2333 69.2589 14.0333 68.8722 13.22C68.4855 12.3933 67.8589 11.98 66.9922 11.98C66.4189 11.98 65.9455 12.1666 65.5722 12.54C65.2122 12.9 64.9455 13.44 64.7722 14.16C64.6122 14.88 64.5322 15.7733 64.5322 16.84C64.5322 17.9066 64.6122 18.8 64.7722 19.52C64.9455 20.24 65.2122 20.7866 65.5722 21.16C65.9455 21.52 66.4189 21.7 66.9922 21.7Z" fill="black"/>
<path d="M74.2444 24L73.1844 9.71998H75.7044C75.8511 11.16 75.9644 12.3666 76.0444 13.34C76.1244 14.3 76.1777 15.1 76.2044 15.74C76.2444 16.38 76.2644 16.9266 76.2644 17.38C76.2777 17.82 76.2844 18.24 76.2844 18.64C76.2844 18.84 76.2844 19.04 76.2844 19.24C76.2844 19.44 76.2844 19.64 76.2844 19.84C76.2844 20.04 76.2777 20.24 76.2644 20.44C76.2644 20.64 76.2644 20.84 76.2644 21.04C76.2644 21.2266 76.2577 21.4066 76.2444 21.58H76.3844C76.4244 21.22 76.4711 20.8466 76.5244 20.46C76.5777 20.06 76.6311 19.6733 76.6844 19.3C76.7377 18.9266 76.7844 18.5933 76.8244 18.3C76.8644 17.9933 76.8977 17.76 76.9244 17.6L77.6244 13.08H80.3844L81.0644 17.6C81.1044 17.8933 81.1511 18.2066 81.2044 18.54C81.2711 18.8733 81.3311 19.2133 81.3844 19.56C81.4377 19.9066 81.4911 20.2533 81.5444 20.6C81.6111 20.9466 81.6644 21.28 81.7044 21.6H81.8444C81.8311 21.3466 81.8177 21.0866 81.8044 20.82C81.8044 20.5533 81.7977 20.2866 81.7844 20.02C81.7711 19.74 81.7577 19.4733 81.7444 19.22C81.7444 18.9666 81.7444 18.7333 81.7444 18.52C81.7444 18.2933 81.7444 18.1066 81.7444 17.96C81.7444 17.7466 81.7444 17.5066 81.7444 17.24C81.7577 16.96 81.7777 16.6266 81.8044 16.24C81.8311 15.84 81.8644 15.3533 81.9044 14.78C81.9444 14.2066 81.9911 13.5066 82.0444 12.68C82.1111 11.8533 82.1844 10.8666 82.2644 9.71998H84.7844L83.7844 24H80.1844L79.4644 19.12C79.4244 18.8533 79.3777 18.5533 79.3244 18.22C79.2844 17.8866 79.2377 17.5333 79.1844 17.16C79.1444 16.7866 79.1044 16.42 79.0644 16.06H78.9444C78.9044 16.42 78.8577 16.7866 78.8044 17.16C78.7644 17.5333 78.7177 17.8933 78.6644 18.24C78.6111 18.5733 78.5644 18.8666 78.5244 19.12L77.8044 24H74.2444Z" fill="black"/>
<path d="M90.9766 24.2C90.4033 24.2 89.9566 24.0466 89.6366 23.74C89.3166 23.4333 89.1566 23 89.1566 22.44C89.1566 21.8533 89.3099 21.4133 89.6166 21.12C89.9366 20.8266 90.3899 20.68 90.9766 20.68C91.5499 20.68 91.9899 20.8333 92.2966 21.14C92.6166 21.4466 92.7766 21.88 92.7766 22.44C92.7766 22.9733 92.6166 23.4 92.2966 23.72C91.9766 24.04 91.5366 24.2 90.9766 24.2Z" fill="black"/>
<path d="M101.529 24V18.46L97.3688 9.71998H100.429L102.989 15.78L105.529 9.71998H108.569L104.429 18.46V24H101.529Z" fill="black"/>
<path d="M114.961 24.2C114.028 24.2 113.221 24.0333 112.541 23.7C111.861 23.3666 111.301 22.8866 110.861 22.26C110.421 21.62 110.094 20.8466 109.881 19.94C109.668 19.0333 109.561 18 109.561 16.84C109.561 15.2933 109.754 13.9733 110.141 12.88C110.528 11.7733 111.114 10.9333 111.901 10.36C112.701 9.77331 113.721 9.47998 114.961 9.47998C115.894 9.47998 116.701 9.64665 117.381 9.97998C118.061 10.3133 118.621 10.8 119.061 11.44C119.501 12.0666 119.828 12.84 120.041 13.76C120.254 14.6666 120.361 15.6933 120.361 16.84C120.361 18 120.254 19.0333 120.041 19.94C119.828 20.8466 119.501 21.62 119.061 22.26C118.621 22.8866 118.061 23.3666 117.381 23.7C116.701 24.0333 115.894 24.2 114.961 24.2ZM114.961 21.7C115.534 21.7 116.001 21.52 116.361 21.16C116.721 20.7866 116.988 20.24 117.161 19.52C117.334 18.8 117.421 17.9 117.421 16.82C117.421 15.2333 117.228 14.0333 116.841 13.22C116.454 12.3933 115.828 11.98 114.961 11.98C114.388 11.98 113.914 12.1666 113.541 12.54C113.181 12.9 112.914 13.44 112.741 14.16C112.581 14.88 112.501 15.7733 112.501 16.84C112.501 17.9066 112.581 18.8 112.741 19.52C112.914 20.24 113.181 20.7866 113.541 21.16C113.914 21.52 114.388 21.7 114.961 21.7Z" fill="black"/>
<path d="M126.913 24.2C125.806 24.2 124.873 24.0066 124.113 23.62C123.366 23.22 122.8 22.64 122.413 21.88C122.04 21.12 121.853 20.2066 121.853 19.14V9.71998H124.753V18.64C124.753 19.3866 124.833 19.9866 124.993 20.44C125.153 20.88 125.393 21.2 125.713 21.4C126.046 21.6 126.46 21.7 126.953 21.7C127.473 21.7 127.893 21.6 128.213 21.4C128.546 21.1866 128.786 20.8533 128.933 20.4C129.08 19.9466 129.153 19.3533 129.153 18.62V9.71998H132.053V19.12C132.053 20.16 131.86 21.06 131.473 21.82C131.1 22.58 130.533 23.1666 129.773 23.58C129.013 23.9933 128.06 24.2 126.913 24.2Z" fill="black"/>
<path d="M138.945 24.2C138.372 24.2 137.925 24.0466 137.605 23.74C137.285 23.4333 137.125 23 137.125 22.44C137.125 21.8533 137.279 21.4133 137.585 21.12C137.905 20.8266 138.359 20.68 138.945 20.68C139.519 20.68 139.959 20.8333 140.265 21.14C140.585 21.4466 140.745 21.88 140.745 22.44C140.745 22.9733 140.585 23.4 140.265 23.72C139.945 24.04 139.505 24.2 138.945 24.2Z" fill="black"/>
<path d="M145.838 24V9.71998H150.258C151.498 9.71998 152.571 9.98665 153.478 10.52C154.384 11.04 155.084 11.82 155.578 12.86C156.084 13.9 156.338 15.1933 156.338 16.74C156.338 18.3 156.078 19.62 155.558 20.7C155.051 21.78 154.324 22.6 153.378 23.16C152.444 23.72 151.331 24 150.038 24H145.838ZM149.878 21.54C151.091 21.54 151.978 21.1466 152.538 20.36C153.111 19.5733 153.398 18.3733 153.398 16.76C153.398 15.6933 153.271 14.8266 153.018 14.16C152.778 13.48 152.418 12.98 151.938 12.66C151.458 12.34 150.851 12.18 150.118 12.18H148.698V21.54H149.878Z" fill="black"/>
<path d="M157.13 24L161.07 9.65998H164.77L168.73 24H165.83L163.55 14.54C163.483 14.2333 163.41 13.9333 163.33 13.64C163.263 13.3466 163.196 13.0533 163.13 12.76C163.063 12.4533 162.996 12.1533 162.93 11.86C162.863 12.1533 162.796 12.4533 162.73 12.76C162.663 13.0533 162.596 13.3466 162.53 13.64C162.463 13.9333 162.39 14.2333 162.31 14.54L159.95 24H157.13ZM160.29 20.46L160.89 18.06H165.01L165.29 20.46H160.29Z" fill="black"/>
<path d="M173.462 24V12.22H169.522V9.71998H180.322V12.22H176.362V24H173.462Z" fill="black"/>
<path d="M182.514 24V9.71998H191.514V12.22H185.314V15.34H191.214V17.84H185.314V21.5H191.514V24H182.514Z" fill="black"/>
<rect x="2.76318" y="2.76318" width="32.2368" height="32.2368" fill="black"/>
<rect x="1" y="1" width="30.2368" height="30.2368" fill="white" stroke="black" stroke-width="2"/>
<path d="M8.23426 8.82428H6.82434V14.4729H8.23426V8.82428Z" fill="#FF2968"/>
<path d="M9.64871 7.40991H8.23431V8.82431V15.8829H9.64871V7.40991Z" fill="#FF2968"/>
<path d="M8.23426 13.0585H6.82434V17.2928H8.23426V13.0585Z" fill="#C40851"/>
<path d="M25.1757 13.0585H23.7657V17.2928H25.1757V13.0585Z" fill="#C40851"/>
<path d="M22.3513 15.8829H20.9414V20.1171H22.3513V15.8829Z" fill="#C40851"/>
<path d="M20.9415 17.2928H19.5316V21.527H20.9415V17.2928Z" fill="#C40851"/>
<path d="M23.7658 14.473H22.3559V18.7072H23.7658V14.473Z" fill="#C40851"/>
<path d="M19.527 18.7072H18.1171V22.9414H19.527V18.7072Z" fill="#C40851"/>
<path d="M18.1172 20.1171H16.7073V24.3514H18.1172V20.1171Z" fill="#C40851"/>
<path d="M9.64424 14.473H8.23431V18.7072H9.64424V14.473Z" fill="#C40851"/>
<path d="M11.0586 15.8829H9.64868V20.1171H11.0586V15.8829Z" fill="#C40851"/>
<path d="M12.4685 17.2928H11.0586V21.527H12.4685V17.2928Z" fill="#C40851"/>
<path d="M13.8829 18.7072H12.473V22.9414H13.8829V18.7072Z" fill="#C40851"/>
<path d="M15.2929 20.1171H13.8829V24.3514H15.2929V20.1171Z" fill="#C40851"/>
<path d="M16.7027 21.5315H15.2928V25.7657H16.7027V21.5315Z" fill="#C40851"/>
<path d="M11.0586 7.40991H9.64868V15.8829H11.0586V7.40991Z" fill="#FF2968"/>
<path d="M25.1757 8.82428H23.7657V13.0585H25.1757V8.82428Z" fill="#FF2968"/>
<path d="M26.5856 11.6486H25.1757V13.0585H26.5856V11.6486Z" fill="#C40851"/>
<path d="M12.4685 7.40991H11.0586V17.2928H12.4685V7.40991Z" fill="#FF2968"/>
<path d="M23.7658 7.40991H22.3559V14.4685H23.7658V7.40991Z" fill="#FF2968"/>
<path d="M13.8829 8.82428H12.473V18.7072H13.8829V8.82428Z" fill="#FF2968"/>
<path d="M22.3513 7.40991H20.9414V15.8829H22.3513V7.40991Z" fill="#FF2968"/>
<path d="M18.1172 10.2343H16.7073V20.1171H18.1172V10.2343Z" fill="#FF2968"/>
<path d="M15.2929 20.1171V10.2342V8.82428H13.8829V20.1171H15.2929Z" fill="#FF2968"/>
<path d="M20.9415 17.2928V7.40991H19.5316V8.82431V17.2928H20.9415Z" fill="#FF2968"/>
<path d="M16.7027 11.6486H15.2928V21.5315H16.7027V11.6486Z" fill="#FF2968"/>
<path d="M19.527 8.82428H18.1171V18.7072H19.527V8.82428Z" fill="#FF2968"/>
<path d="M12.4685 6H8.23425V7.40992H12.4685V6Z" fill="#07042D"/>
<path d="M23.7658 6H19.5316V7.40992H23.7658V6Z" fill="#07042D"/>
<path d="M13.8829 7.40997H12.473V8.81989H13.8829V7.40997Z" fill="#07042D"/>
<path d="M19.527 7.40997H18.1171V8.81989H19.527V7.40997Z" fill="#07042D"/>
<path d="M5.40992 11.6486H4V14.4729H5.40992V11.6486Z" fill="#07042D"/>
<path d="M6.81989 11.6486H5.40997V13.0585H6.81989V11.6486Z" fill="#C40851"/>
<path d="M6.81989 13.0586H5.40997V14.4685H6.81989V13.0586Z" fill="#C40851"/>
<path d="M26.5856 13.0586H25.1757V14.4685H26.5856V13.0586Z" fill="#C40851"/>
<path d="M12.4685 21.5315H11.0586V22.9414H12.4685V21.5315Z" fill="#07042D"/>
<path d="M11.0585 20.1171H9.64862V21.527H11.0585V20.1171Z" fill="#07042D"/>
<path d="M8.23426 17.2928H6.82434V18.7027H8.23426V17.2928Z" fill="#07042D"/>
<path d="M9.64417 18.7072H8.23425V20.1171H9.64417V18.7072Z" fill="#07042D"/>
<path d="M6.81989 14.473H5.40997V17.2973H6.81989V14.473Z" fill="#07042D"/>
<path d="M6.81989 8.82434H5.40997V11.6487H6.81989V8.82434Z" fill="#07042D"/>
<path d="M8.23426 7.40997H6.82434V8.81989H8.23426V7.40997Z" fill="#07042D"/>
<path d="M15.2929 8.82434H13.8829V10.2343H15.2929V8.82434Z" fill="#07042D"/>
<path d="M16.7027 10.2343H15.2928V11.6442H16.7027V10.2343Z" fill="#07042D"/>
<path d="M18.1171 8.82434H16.7072V10.2343H18.1171V8.82434Z" fill="#07042D"/>
<path d="M27.9999 11.6486H26.59V14.4729H27.9999V11.6486Z" fill="#07042D"/>
<path d="M25.1801 17.2928H26.59V14.4685H25.1801V17.2928Z" fill="#07042D"/>
<path d="M25.1801 11.6486H26.59V8.8243H25.1801V11.6486Z" fill="#07042D"/>
<path d="M23.7657 8.82434H25.1757V7.41442H23.7657V8.82434Z" fill="#07042D"/>
<path d="M16.7027 25.7657H15.2928V27.1757H16.7027V25.7657Z" fill="#07042D"/>
<path d="M13.8829 22.9414H12.473V24.3513H13.8829V22.9414Z" fill="#07042D"/>
<path d="M20.9415 21.5315H19.5316V22.9414H20.9415V21.5315Z" fill="#07042D"/>
<path d="M22.3513 20.1171H20.9414V21.527H22.3513V20.1171Z" fill="#07042D"/>
<path d="M23.7658 18.7072H22.3558V20.1171H23.7658V18.7072Z" fill="#07042D"/>
<path d="M25.1757 17.2928H23.7657V18.7027H25.1757V17.2928Z" fill="#07042D"/>
<path d="M19.527 22.9414H18.1171V24.3513H19.527V22.9414Z" fill="#07042D"/>
<path d="M15.2929 24.3558H13.8829V25.7658H15.2929V24.3558Z" fill="#07042D"/>
<path d="M18.1171 24.3558H16.7072V25.7658H18.1171V24.3558Z" fill="#07042D"/>
<path d="M9.64417 10.2343H8.23425V13.0586H9.64417V10.2343Z" fill="#FFEEFF"/>
<path d="M11.0586 8.82434H9.64868V10.2343H11.0586V8.82434Z" fill="#FFEEFF"/>
</svg>

<svg width="192" height="35" fill="none" xmlns="http://www.w3.org/2000/svg"><path d="M49.9 24V9.72h3.94l3.76 11.5h.06a241.15 241.15 0 0 0-.08-1.34c-.013-.44-.027-.847-.04-1.22 0-.387-.007-.727-.02-1.02V9.72h2.58V24h-3.98l-3.76-11.6h-.08c.027.48.053.947.08 1.4.027.44.047.86.06 1.26.027.387.04.74.04 1.06.013.307.02.56.02.76V24H49.9zM66.992 24.2c-.933 0-1.74-.167-2.42-.5a4.38 4.38 0 0 1-1.68-1.44c-.44-.64-.767-1.413-.98-2.32-.213-.907-.32-1.94-.32-3.1 0-1.547.194-2.867.58-3.96.387-1.107.974-1.947 1.76-2.52.8-.587 1.82-.88 3.06-.88.933 0 1.74.167 2.42.5.68.333 1.24.82 1.68 1.46.44.627.767 1.4.98 2.32.213.907.32 1.933.32 3.08 0 1.16-.106 2.193-.32 3.1-.213.907-.54 1.68-.98 2.32a4.38 4.38 0 0 1-1.68 1.44c-.68.333-1.487.5-2.42.5zm0-2.5c.573 0 1.04-.18 1.4-.54.36-.373.627-.92.8-1.64.174-.72.26-1.62.26-2.7 0-1.587-.193-2.787-.58-3.6-.386-.827-1.013-1.24-1.88-1.24-.573 0-1.047.187-1.42.56-.36.36-.627.9-.8 1.62-.16.72-.24 1.613-.24 2.68 0 1.067.08 1.96.24 2.68.173.72.44 1.267.8 1.64.373.36.847.54 1.42.54zM74.244 24l-1.06-14.28h2.52c.147 1.44.26 2.647.34 3.62.08.96.134 1.76.16 2.4.04.64.06 1.187.06 1.64.014.44.02.86.02 1.26v1.2c0 .2-.006.4-.02.6v.6c0 .187-.006.367-.02.54h.14c.04-.36.087-.733.14-1.12.054-.4.107-.787.16-1.16.054-.373.1-.707.14-1 .04-.307.074-.54.1-.7l.7-4.52h2.76l.68 4.52c.04.293.087.607.14.94.067.333.127.673.18 1.02l.16 1.04c.067.347.12.68.16 1h.14l-.04-.78c0-.267-.006-.533-.02-.8a160.3 160.3 0 0 0-.04-.8v-1.98c.014-.28.034-.613.06-1l.1-1.46c.04-.573.087-1.273.14-2.1.067-.827.14-1.813.22-2.96h2.52l-1 14.28h-3.6l-.72-4.88c-.04-.267-.086-.567-.14-.9-.04-.333-.086-.687-.14-1.06l-.12-1.1h-.12c-.04.36-.086.727-.14 1.1-.04.373-.086.733-.14 1.08l-.14.88-.72 4.88h-3.56zM90.977 24.2c-.574 0-1.02-.153-1.34-.46-.32-.307-.48-.74-.48-1.3 0-.587.153-1.027.46-1.32.32-.293.773-.44 1.36-.44.573 0 1.013.153 1.32.46.32.307.48.74.48 1.3 0 .533-.16.96-.48 1.28-.32.32-.76.48-1.32.48zM101.529 24v-5.54l-4.16-8.74h3.06l2.56 6.06 2.54-6.06h3.04l-4.14 8.74V24h-2.9zM114.961 24.2c-.933 0-1.74-.167-2.42-.5a4.38 4.38 0 0 1-1.68-1.44c-.44-.64-.767-1.413-.98-2.32-.213-.907-.32-1.94-.32-3.1 0-1.547.193-2.867.58-3.96.387-1.107.973-1.947 1.76-2.52.8-.587 1.82-.88 3.06-.88.933 0 1.74.167 2.42.5.68.333 1.24.82 1.68 1.46.44.627.767 1.4.98 2.32.213.907.32 1.933.32 3.08 0 1.16-.107 2.193-.32 3.1-.213.907-.54 1.68-.98 2.32a4.38 4.38 0 0 1-1.68 1.44c-.68.333-1.487.5-2.42.5zm0-2.5c.573 0 1.04-.18 1.4-.54.36-.373.627-.92.8-1.64.173-.72.26-1.62.26-2.7 0-1.587-.193-2.787-.58-3.6-.387-.827-1.013-1.24-1.88-1.24-.573 0-1.047.187-1.42.56-.36.36-.627.9-.8 1.62-.16.72-.24 1.613-.24 2.68 0 1.067.08 1.96.24 2.68.173.72.44 1.267.8 1.64.373.36.847.54 1.42.54zM126.913 24.2c-1.107 0-2.04-.193-2.8-.58a3.97 3.97 0 0 1-1.7-1.74c-.373-.76-.56-1.673-.56-2.74V9.72h2.9v8.92c0 .747.08 1.347.24 1.8.16.44.4.76.72.96.333.2.747.3 1.24.3.52 0 .94-.1 1.26-.3.333-.213.573-.547.72-1 .147-.453.22-1.047.22-1.78v-8.9h2.9v9.4c0 1.04-.193 1.94-.58 2.7a3.942 3.942 0 0 1-1.7 1.76c-.76.413-1.713.62-2.86.62zM138.945 24.2c-.573 0-1.02-.153-1.34-.46-.32-.307-.48-.74-.48-1.3 0-.587.154-1.027.46-1.32.32-.293.774-.44 1.36-.44.574 0 1.014.153 1.32.46.32.307.48.74.48 1.3 0 .533-.16.96-.48 1.28-.32.32-.76.48-1.32.48zM145.838 24V9.72h4.42c1.24 0 2.313.267 3.22.8.906.52 1.606 1.3 2.1 2.34.506 1.04.76 2.333.76 3.88 0 1.56-.26 2.88-.78 3.96-.507 1.08-1.234 1.9-2.18 2.46-.934.56-2.047.84-3.34.84h-4.2zm4.04-2.46c1.213 0 2.1-.393 2.66-1.18.573-.787.86-1.987.86-3.6 0-1.067-.127-1.933-.38-2.6-.24-.68-.6-1.18-1.08-1.5-.48-.32-1.087-.48-1.82-.48h-1.42v9.36h1.18zM157.13 24l3.94-14.34h3.7L168.73 24h-2.9l-2.28-9.46a18.1 18.1 0 0 0-.22-.9l-.2-.88c-.067-.307-.134-.607-.2-.9a72.96 72.96 0 0 0-.2.9l-.2.88c-.067.293-.14.593-.22.9L159.95 24h-2.82zm3.16-3.54.6-2.4h4.12l.28 2.4h-5zM173.462 24V12.22h-3.94v-2.5h10.8v2.5h-3.96V24h-2.9zM182.514 24V9.72h9v2.5h-6.2v3.12h5.9v2.5h-5.9v3.66h6.2V24h-9zM2.763 2.763H35V35H2.763z" fill="#000"/><path fill="#fff" stroke="#000" stroke-width="2" d="M1 1h30.237v30.237H1z"/><path d="M8.234 8.824h-1.41v5.649h1.41V8.824zM9.649 7.41H8.234v8.473H9.65V7.41z" fill="#FF2968"/><path d="M8.234 13.059h-1.41v4.234h1.41v-4.234zM25.176 13.059h-1.41v4.234h1.41v-4.234zM22.351 15.883h-1.41v4.234h1.41v-4.234z" fill="#C40851"/><path d="M20.942 17.293h-1.41v4.234h1.41v-4.234zM23.766 14.473h-1.41v4.234h1.41v-4.234zM19.527 18.707h-1.41v4.234h1.41v-4.234zM18.117 20.117h-1.41v4.234h1.41v-4.234zM9.644 14.473h-1.41v4.234h1.41v-4.234zM11.059 15.883h-1.41v4.234h1.41v-4.234zM12.469 17.293h-1.41v4.234h1.41v-4.234zM13.883 18.707h-1.41v4.234h1.41v-4.234zM15.293 20.117h-1.41v4.234h1.41v-4.234zM16.703 21.532h-1.41v4.234h1.41v-4.234z" fill="#C40851"/><path d="M11.059 7.41h-1.41v8.473h1.41V7.41zM25.176 8.824h-1.41v4.235h1.41V8.823z" fill="#FF2968"/><path d="M26.586 11.649h-1.41v1.41h1.41v-1.41z" fill="#C40851"/><path d="M12.469 7.41h-1.41v9.883h1.41V7.41zM23.766 7.41h-1.41v7.059h1.41v-7.06zM13.883 8.824h-1.41v9.883h1.41V8.824zM22.351 7.41h-1.41v8.473h1.41V7.41zM18.117 10.234h-1.41v9.883h1.41v-9.883zM15.293 20.117V8.824h-1.41v11.293h1.41z" fill="#FF2968"/><path d="M20.942 17.293V7.41h-1.41v9.883h1.41zM16.703 11.649h-1.41v9.883h1.41v-9.883zM19.527 8.824h-1.41v9.883h1.41V8.824z" fill="#FF2968"/><path d="M12.469 6H8.233v1.41h4.235V6zM23.766 6h-4.234v1.41h4.234V6zM13.883 7.41h-1.41v1.41h1.41V7.41zM19.527 7.41h-1.41v1.41h1.41V7.41zM5.41 11.649H4v2.824h1.41v-2.824z" fill="#07042D"/><path d="M6.82 11.649H5.41v1.41h1.41v-1.41zM6.82 13.059H5.41v1.41h1.41v-1.41zM26.586 13.059h-1.41v1.41h1.41v-1.41z" fill="#C40851"/><path d="M12.469 21.532h-1.41v1.41h1.41v-1.41zM11.059 20.117h-1.41v1.41h1.41v-1.41zM8.234 17.293h-1.41v1.41h1.41v-1.41zM9.644 18.707h-1.41v1.41h1.41v-1.41zM6.82 14.473H5.41v2.824h1.41v-2.824zM6.82 8.824H5.41v2.825h1.41V8.824zM8.234 7.41h-1.41v1.41h1.41V7.41zM15.293 8.824h-1.41v1.41h1.41v-1.41zM16.703 10.234h-1.41v1.41h1.41v-1.41zM18.117 8.824h-1.41v1.41h1.41v-1.41zM28 11.649h-1.41v2.824H28v-2.824zM25.18 17.293h1.41v-2.824h-1.41v2.824zM25.18 11.649h1.41V8.824h-1.41v2.825zM23.766 8.824h1.41v-1.41h-1.41v1.41zM16.703 25.766h-1.41v1.41h1.41v-1.41zM13.883 22.941h-1.41v1.41h1.41v-1.41zM20.942 21.532h-1.41v1.41h1.41v-1.41zM22.351 20.117h-1.41v1.41h1.41v-1.41zM23.766 18.707h-1.41v1.41h1.41v-1.41zM25.176 17.293h-1.41v1.41h1.41v-1.41zM19.527 22.941h-1.41v1.41h1.41v-1.41zM15.293 24.356h-1.41v1.41h1.41v-1.41zM18.117 24.356h-1.41v1.41h1.41v-1.41z" fill="#07042D"/><path d="M9.644 10.234h-1.41v2.825h1.41v-2.825zM11.059 8.824h-1.41v1.41h1.41v-1.41z" fill="#FEF"/></svg>
